X: 21596
T: Killarney Boys Of Pleasure, The
R: reel
M: 4/4
K: Eminor
|:E3D E2FA|BFAF DEFA|B3d e3d|(3Bcd AF DEFD|
E3D E2FA|BFAF DEFA|B3d e3d|1 (3Bcd AF FEED:|2 (3Bcd AF FE E2||
|:Be e2 Be e2|dBAF DEFA|dffe f3e|dBAF DEFA|
Be e2 Be e2|dBAF DEFA|dffe d3A|1 (3Bcd AF FE E2:|2 (3Bcd AF FEED||

